X: 100295
T: THE SMIDDY'S CLAMOUR REEL -- (New)
C: By J. McQueen, Forres
R: reel
B: K\"ohler's Violin Repository, v.3, 1885 p.215 #1
F: http://www.archive.org/details/klersviolinrepos03rugg
Z: 2012 John Chambers <jc:trillian.mit.edu>
M: C|
L: 1/8
K: C
   uG | c2(ce) dcAG | c2(ce) gage | ccce dcAG | agec d2c :|
|: ue | gage abae | gage aeef | gage abae | agec d2c "^Fine.":|

%%sep 2 1 500

